Catalina-light/actions/16/path-exclusion.svg

<svg xmlns="http://www.w3.org/2000/svg" viewBox="0 0 16 16">
  <defs id="defs3051">
    <style type="text/css" id="current-color-scheme">
      .ColorScheme-Text {
        color:#363636;
      }
      </style>
  </defs>
 <path style="fill:currentColor;fill-opacity:1;stroke:none" 
     d="M 9.5039062 2 A 4.5 4.5 0 0 0 5.0371094 6 L 2 6 L 2 14 L 10 14 L 10 10.970703 A 4.5 4.5 0 0 0 14.003906 6.5 A 4.5 4.5 0 0 0 9.5039062 2 z M 9.5039062 3 A 3.5 3.5 0 0 1 13.003906 6.5 A 3.5 3.5 0 0 1 10 9.9609375 L 10 6 L 6.0449219 6 A 3.5 3.5 0 0 1 9.5039062 3 z M 3 7 L 5.0351562 7 A 4.5 4.5 0 0 0 9 10.966797 L 9 13 L 3 13 L 3 7 z M 6.0429688 7 L 9 7 L 9 9.9589844 A 3.5 3.5 0 0 1 6.0429688 7 z "
     class="ColorScheme-Text"
     />
 <path style="fill:currentColor;fill-opacity:0.5;stroke:none" 
     d="M 9.5 3 A 3.5 3.5 0 0 0 6 6.5 A 3.5 3.5 0 0 0 6.0390625 7 L 9 7 L 9 9.9589844 A 3.5 3.5 0 0 0 9.5 10 A 3.5 3.5 0 0 0 13 6.5 A 3.5 3.5 0 0 0 9.5 3 z M 9 9.9589844 A 3.5 3.5 0 0 1 6.0390625 7 L 3 7 L 3 13 L 9 13 L 9 9.9589844 z "
     class="ColorScheme-Text"
     />
</svg>

<svg viewBox="0 0 16 16" xmlns="http://www.w3.org/2000/svg">
<defs>
<style id="current-color-scheme" type="text/css">.ColorScheme-Text {
        color:#363636;
      }</style>
</defs>
<path class="ColorScheme-Text" d="m9.5039 2a4.5 4.5 0 0 0-4.4668 4h-3.0371v8h8v-3.0293a4.5 4.5 0 0 0 4.0039-4.4707 4.5 4.5 0 0 0-4.5-4.5zm0 1a3.5 3.5 0 0 1 3.5 3.5 3.5 3.5 0 0 1-3.0039 3.4609v-3.9609h-3.9551a3.5 3.5 0 0 1 3.459-3zm-6.5039 4h2.0352a4.5 4.5 0 0 0 3.9648 3.9668v2.0332h-6v-6zm3.043 0h2.957v2.959a3.5 3.5 0 0 1-2.957-2.959z" fill="#363636"/>
<path class="ColorScheme-Text" d="m9.5 3a3.5 3.5 0 0 0-3.5 3.5 3.5 3.5 0 0 0 0.039062 0.5h2.9609v2.959a3.5 3.5 0 0 0 0.5 0.041016 3.5 3.5 0 0 0 3.5-3.5 3.5 3.5 0 0 0-3.5-3.5zm-0.5 6.959a3.5 3.5 0 0 1-2.9609-2.959h-3.0391v6h6v-3.041z" fill="#363636" fill-opacity=".5"/>
</svg>
